src/images/skill/bushcraft/oak.svg

<svg xmlns="http://www.w3.org/2000/svg" viewBox="0 0 512 512" style="height: 512px; width: 512px;"><g class="" transform="translate(0,0)" style=""><path d="M348.92 15.633c-1.387-.018-2.776.02-4.168.113l-.002.006c-13.368.9-26.782 7.143-39.715 19.27-20.056-5.876-37.08-10.614-57.232-.58-37.81-11.887-75.686-13.068-104.54 19.27-42.477-10.09-87.2 9.883-76.51 58.985-47.074 14.955-56.408 78.2-.58 73.586 7.938 46.78 41.118 55.937 83.514 40.883 19.41 24.008 46.462 39.182 77.282 46.443.28 5.105.085 10.33-.566 15.68-5.807 47.77-50.79 105.31-121.367 154.696L81.12 460.723l29.16-1.354c29.003-1.347 48.05-2.39 58.935-1.55-5.818 6.555-11.317 12.37-16.28 17.297L134.04 493.88l26.26-4.417c23.887-4.017 44.442-7.94 59.927-8.363 15.484-.423 24.434 2.174 29.916 9.552l7.33 9.864 6.597-10.368c6.53-10.26 13.576-12.87 27.227-12.257 13.65.613 32.84 6.013 57.043 13.3l29.69 8.94-21.036-22.782c-8.04-8.707-15.965-18.118-23.357-27.786 2.535.115 5.228.297 8.015.596 12.14 1.3 26.887 3.978 40.67 8.067l26.127 7.75-17.145-21.184c-32.25-39.843-64.6-69.885-69.768-104.74-2.584-17.43.916-36.76 15.28-61.374 1.952-3.342 4.124-6.783 6.49-10.31 7.932-2.277 15.826-4.915 23.634-7.913 27.094 24.058 78.02 4.07 50.812-27.45 58.72-14.457 105.89-59.625 26.865-95.196 46.613-36.08 17.39-90.36-40.297-88.188-14.636-21.026-34.603-33.72-55.4-33.987zm11.277 65.488c-42.59 32.678-48.978 37.184-53.506 65.825.317 3.472.597 7.013 1.103 10.11 3.153 19.296 10.22 32.648 21.43 39.89 11.21 7.243 24.752 7.554 38.814 5.344 3.876-.61 7.86-1.446 11.91-2.397-26.82 26.337-45.555 49.373-57.742 70.253-15.75 26.986-20.6 50.827-17.404 72.385 5.283 35.632 30.606 63.305 56.864 93.556-6.317-1.147-12.557-2.146-18.21-2.752-8.907-.955-16.085-1.496-22.225-1.018-15.78-23.394-27.137-46.75-28.396-64.013l-16.875 1.23c2.246 30.812 24.037 66.155 49.786 97.565-12.35-3.28-23.554-5.657-33.69-6.112-13.696-.614-26.363 3.152-35.763 12.244-9.7-7.222-22.628-9.424-36.527-9.044-11.164.304-23.902 2.172-37.366 4.402 44.064-49.242 105.015-137.42 104.04-226.442l-16.92.186c.81 73.714-47.797 152.037-88.25 201.336-11.867-3.388-25.73-3.414-44.05-2.566 60.184-46.96 99.88-99.595 105.98-149.77 3.418-28.11-4.46-55.45-25.085-78.033-16.147-17.684-39.853-32.51-71.576-44.105 7.55-1.88 14.953-4.365 21.462-9.18 6.738-4.988 11.306-13.447 12.117-23.892 4.84 5.99 9.412 10.25 15.808 12.004 3.987 1.093 8.89.41 12.398-1.818 1.18-.75 2.055-1.72 2.987-2.65 1.008 13.36 2.204 26.116 4.996 35.543 1.305 4.41 2.77 8.54 6.917 11.938 4.147 3.4 11.522 3.424 16.02.846 2.954-1.693 5.624-4.19 8.255-7.105.53 5.72 1.776 10.502 4.068 14.624 1.406 2.527 3.53 5.005 6.594 6.473 3.065 1.467 6.72 1.527 9.586.712 5.732-1.63 9.41-5.37 13.29-10.104 8.362-10.204 17.167-27.234 25.41-49.5-1.647-26.645-3.49-39.06-35.522-58.758 25.123 13.013 47.678 20.495 89.27-7.207z" fill="#fff" fill-opacity="1"></path></g></svg>

<svg xmlns="http://www.w3.org/2000/svg" viewBox="0 0 512 512" style="height: 512px; width: 512px;"><g class="" transform="translate(0,0)" style=""><g><path d="M348.92 15.633C347.533 15.615 346.144 15.653 344.752 15.746L344.75 15.752C331.382 16.652 317.968 22.895 305.035 35.022C284.979 29.146 267.955 24.408 247.803 34.442C209.993 22.555 172.117 21.374 143.263 53.712C100.786 43.622 56.063 63.595 66.753 112.697C19.679 127.652 10.345 190.897 66.173 186.283C74.111 233.063 107.291 242.22 149.687 227.166C169.097 251.174 196.149 266.348 226.969 273.609C227.249 278.714 227.054 283.939 226.403 289.289C220.596 337.059 175.613 394.599 105.036 443.985L81.12 460.723L110.28 459.369C139.283 458.022 158.33 456.979 169.215 457.819C163.397 464.374 157.898 470.189 152.935 475.116L134.04 493.88L160.3 489.463C184.187 485.446 204.742 481.523 220.227 481.1C235.711 480.677 244.661 483.274 250.143 490.652L257.473 500.516L264.07 490.148C270.6 479.888 277.646 477.278 291.297 477.891C304.947 478.504 324.137 483.904 348.34 491.191L378.03 500.131L356.994 477.349C348.954 468.642 341.029 459.231 333.637 449.563C336.172 449.678 338.865 449.86 341.652 450.159C353.792 451.459 368.539 454.137 382.322 458.226L408.449 465.976L391.304 444.792C359.054 404.949 326.704 374.907 321.536 340.052C318.952 322.622 322.452 303.292 336.816 278.678C338.768 275.336 340.94 271.895 343.306 268.368C351.238 266.091 359.132 263.453 366.94 260.455C394.034 284.513 444.96 264.525 417.752 233.005C476.472 218.548 523.642 173.38 444.617 137.809C491.23 101.729 462.007 47.449 404.32 49.621C389.684 28.595 369.717 15.901 348.92 15.634Z" class="" fill="#695a54" fill-opacity="1"></path><path d="M360.197 81.121C317.607 113.799 311.219 118.305 306.691 146.946C307.008 150.418 307.288 153.959 307.794 157.056C310.947 176.352 318.014 189.704 329.224 196.946C340.434 204.189 353.976 204.5 368.038 202.29C371.914 201.68 375.898 200.844 379.948 199.893C353.128 226.23 334.393 249.266 322.206 270.146C306.456 297.132 301.606 320.973 304.802 342.531C310.085 378.163 335.408 405.836 361.666 436.087C355.349 434.94 349.109 433.941 343.456 433.335C334.549 432.38 327.371 431.839 321.231 432.317C305.451 408.923 294.094 385.567 292.835 368.304L275.96 369.534C278.206 400.346 299.997 435.689 325.746 467.099C313.396 463.819 302.192 461.442 292.056 460.987C278.36 460.373 265.693 464.139 256.293 473.231C246.593 466.009 233.665 463.807 219.766 464.187C208.602 464.491 195.864 466.359 182.4 468.589C226.464 419.347 287.415 331.169 286.44 242.147L269.52 242.333C270.33 316.047 221.723 394.37 181.27 443.669C169.403 440.281 155.54 440.255 137.22 441.103C197.404 394.143 237.1 341.508 243.2 291.333C246.618 263.223 238.74 235.883 218.115 213.3C201.968 195.616 178.262 180.79 146.539 169.195C154.089 167.315 161.492 164.83 168.001 160.015C174.739 155.027 179.307 146.568 180.118 136.123C184.958 142.113 189.53 146.373 195.926 148.127C199.913 149.22 204.816 148.537 208.324 146.309C209.504 145.559 210.379 144.589 211.311 143.659C212.319 157.019 213.515 169.775 216.307 179.202C217.612 183.612 219.077 187.742 223.224 191.14C227.371 194.54 234.746 194.564 239.244 191.986C242.198 190.293 244.868 187.796 247.499 184.881C248.029 190.601 249.275 195.383 251.567 199.505C252.973 202.032 255.097 204.51 258.161 205.978C261.226 207.445 264.881 207.505 267.747 206.69C273.479 205.06 277.157 201.32 281.037 196.586C289.399 186.382 298.204 169.352 306.447 147.086C304.8 120.441 302.957 108.026 270.925 88.328C296.048 101.341 318.603 108.823 360.195 81.121Z" class="selected" fill="#a0938c" fill-opacity="1"></path></g></g></svg>
